packages/elements/bolt-icon/src/svgs/java.svg

<svg enable-background="new 0 0 32 32" viewBox="0 0 32 32" xmlns="http://www.w3.org/2000/svg"><path clip-rule="evenodd" d="m23.5 24.6c-.3 0-.5-.1-.7-.3-.4-.4-.4-1 0-1.4l6.8-6.8-6.8-6.8c-.4-.3-.5-1-.2-1.4s1-.5 1.4-.2c.1.1.1.1.2.2l7.5 7.5c.4.4.4 1 0 1.4l-7.5 7.5c-.2.2-.4.3-.7.3zm-15 0c-.3 0-.5-.1-.7-.3l-7.5-7.5c-.4-.4-.4-1 0-1.4l7.5-7.5c.3-.4 1-.5 1.4-.2s.5 1 .2 1.4c-.1.1-.1.2-.2.2l-6.8 6.8 6.8 6.8c.4.4.4 1 0 1.4-.2.2-.4.3-.7.3zm2.3 3.5c-.1 0-.3 0-.4-.1-.5-.2-.7-.8-.5-1.3l10.3-22.4c.3-.5.9-.6 1.4-.3.3.2.5.7.4 1.1l-10.3 22.4c-.1.4-.5.7-.9.6z" fill="#151619" fill-rule="evenodd"/></svg>

<?xml version="1.0" encoding="utf-8"?>
<!-- Generator: Adobe Illustrator 25.2.0, SVG Export Plug-In . SVG Version: 6.00 Build 0)  -->
<svg version="1.1" id="Layer_1" xmlns="http://www.w3.org/2000/svg" xmlns:xlink="http://www.w3.org/1999/xlink" x="0px" y="0px"
	 viewBox="0 0 32 32" style="enable-background:new 0 0 32 32;" xml:space="preserve">
<style type="text/css">
	.st0{fill-rule:evenodd;clip-rule:evenodd;fill:#151619;}
</style>
<path class="st0" d="M23.5,24.6c-0.3,0-0.5-0.1-0.7-0.3c-0.4-0.4-0.4-1,0-1.4l6.8-6.8l-6.8-6.8c-0.4-0.3-0.5-1-0.2-1.4
	c0.3-0.4,1-0.5,1.4-0.2c0.1,0.1,0.1,0.1,0.2,0.2l7.5,7.5c0.4,0.4,0.4,1,0,1.4l-7.5,7.5C24,24.5,23.8,24.6,23.5,24.6z M8.5,24.6
	c-0.3,0-0.5-0.1-0.7-0.3l-7.5-7.5c-0.4-0.4-0.4-1,0-1.4l7.5-7.5c0.3-0.4,1-0.5,1.4-0.2c0.4,0.3,0.5,1,0.2,1.4
	C9.3,9.2,9.3,9.3,9.2,9.3l-6.8,6.8l6.8,6.8c0.4,0.4,0.4,1,0,1.4C9,24.5,8.8,24.6,8.5,24.6z M10.8,28.1c-0.1,0-0.3,0-0.4-0.1
	c-0.5-0.2-0.7-0.8-0.5-1.3L20.2,4.3c0.3-0.5,0.9-0.6,1.4-0.3c0.3,0.2,0.5,0.7,0.4,1.1L11.7,27.5C11.6,27.9,11.2,28.2,10.8,28.1z"/>
</svg>
